src/assets/duotone/TickCircle.svg

<svg width="24" height="24" viewBox="0 0 24 24"  xmlns="http://www.w3.org/2000/svg">
<path opacity="0.4" d="M12 22C17.5228 22 22 17.5228 22 12C22 6.47715 17.5228 2 12 2C6.47715 2 2 6.47715 2 12C2 17.5228 6.47715 22 12 22Z" />
<path d="M10.5799 15.5796C10.3799 15.5796 10.1899 15.4996 10.0499 15.3596L7.21994 12.5296C6.92994 12.2396 6.92994 11.7596 7.21994 11.4696C7.50994 11.1796 7.98994 11.1796 8.27994 11.4696L10.5799 13.7696L15.7199 8.62961C16.0099 8.33961 16.4899 8.33961 16.7799 8.62961C17.0699 8.91961 17.0699 9.39961 16.7799 9.68961L11.1099 15.3596C10.9699 15.4996 10.7799 15.5796 10.5799 15.5796Z" />
</svg>

<?xml version="1.0" encoding="UTF-8"?>
<svg width="24" height="24" viewBox="0 0 24 24" xmlns="http://www.w3.org/2000/svg">
 <path d="m12 22c5.5228 0 10-4.4772 10-10 0-5.5228-4.4772-10-10-10-5.5228 0-10 4.4772-10 10 0 5.5228 4.4772 10 10 10z" opacity=".4"/>
 <path d="m10.58 15.58c-0.2 0-0.39-0.08-0.53-0.22l-2.83-2.83c-0.29-0.29-0.29-0.77 0-1.06s0.77-0.29 1.06 0l2.3 2.3 5.14-5.14c0.29-0.29 0.77-0.29 1.06 0s0.29 0.77 0 1.06l-5.67 5.67c-0.14 0.14-0.33 0.22-0.53 0.22z"/>
</svg>
